X: 10761
T: 1. KENO REEL
R: reel
B: K\"ohler's Violin Repository, v.1, 1885 p.76 #1
F: http://www.archive.org/details/klersviolinrepos01edin
Z: 2012 John Chambers <jc:trillian.mit.edu>
M: C|
L: 1/8
K: D
u((3A,B,C) |\
(3DDD (DA,) B,DGB | (AF)ED (FD)B,A, |\
(3DDD (DA,) B,DGB | A(FEF) D2 :|\
u((3ABc) |\
(dc)BA (Bc)de | (fd)ge (fd)ec |
(dc)BA (Bc)de | (fd)ec (dc)Bc |\
(dc)BA (Bc)de | (fd)ge (af)ge |\
(dc)BA (Bc)de | fdec d2 "_D.C."|]

%%sep 2 1 500

